icons/imageico.svg

<svg width="16" height="16" viewBox="0 0 16 16" fill="none" xmlns="http://www.w3.org/2000/svg">
<path fill-rule="evenodd" clip-rule="evenodd" d="M4 2H9.11C9.23874 1.99851 9.36642 2.02348 9.48511 2.07337C9.6038 2.12325 9.71098 2.19699 9.8 2.29C10.49 3 12 4.53 12.71 5.21C12.8947 5.39626 12.9989 5.64766 13 5.91V13C13 13.2652 12.8946 13.5196 12.7071 13.7071C12.5196 13.8946 12.2652 14 12 14H4C3.73478 14 3.48043 13.8946 3.29289 13.7071C3.10536 13.5196 3 13.2652 3 13V3C3 2.73479 3.10536 2.48043 3.29289 2.2929C3.48043 2.10536 3.73478 2 4 2ZM8.18891 4.54348C8.12665 4.36437 7.87335 4.36437 7.81109 4.54348L7.10524 6.57412C7.07777 6.65313 7.00403 6.7067 6.9204 6.70841L4.77103 6.75221C4.58144 6.75607 4.50317 6.99698 4.65427 7.11154L6.36741 8.41035C6.43407 8.46088 6.46223 8.54757 6.43801 8.62764L5.81547 10.6853C5.76056 10.8668 5.96549 11.0157 6.12114 10.9074L7.88576 9.67949C7.95443 9.63171 8.04557 9.63171 8.11424 9.67949L9.87886 10.9074C10.0345 11.0157 10.2394 10.8668 10.1845 10.6853L9.56199 8.62764C9.53777 8.54757 9.56593 8.46088 9.63259 8.41035L11.3457 7.11154C11.4968 6.99698 11.4186 6.75607 11.229 6.75221L9.0796 6.70841C8.99597 6.7067 8.92223 6.65313 8.89476 6.57412L8.18891 4.54348Z" fill="#3ADECA"/>
</svg>

<svg xmlns="http://www.w3.org/2000/svg" width="16" height="16" fill="none"><path fill="#3ADECA" fill-rule="evenodd" d="M4 2h5.11a.94.94 0 0 1 .69.29c.69.71 2.2 2.24 2.91 2.92a1 1 0 0 1 .29.7V13a1 1 0 0 1-1 1H4a1 1 0 0 1-1-1V3a1 1 0 0 1 1-1Zm4.189 2.543a.2.2 0 0 0-.378 0l-.706 2.031a.2.2 0 0 1-.185.134l-2.149.044a.2.2 0 0 0-.117.36L6.367 8.41a.2.2 0 0 1 .071.218l-.623 2.057a.2.2 0 0 0 .306.222L7.886 9.68a.2.2 0 0 1 .228 0l1.765 1.228a.2.2 0 0 0 .306-.222l-.623-2.057a.2.2 0 0 1 .07-.218l1.714-1.298a.2.2 0 0 0-.117-.36l-2.15-.044a.2.2 0 0 1-.184-.134l-.706-2.03Z" clip-rule="evenodd"/></svg>
